Newaita-dark/actions/32/games-config-board.svg

<?xml version="1.0" encoding="UTF-8"?>
<svg xmlns="http://www.w3.org/2000/svg" xmlns:xlink="http://www.w3.org/1999/xlink" width="32pt" height="32pt" viewBox="0 0 32 32" version="1.1">
<g id="surface1">
<path style=" stroke:none;fill-rule:nonzero;fill:rgb(74.117649%,74.117649%,74.117649%);fill-opacity:1;" d="M 3.308594 1.574219 C 2.207031 1.574219 1.324219 2.457031 1.324219 3.558594 L 1.324219 28.695312 C 1.324219 29.792969 2.207031 30.679688 3.308594 30.679688 L 28.445312 30.679688 C 29.542969 30.679688 30.429688 29.792969 30.429688 28.695312 L 30.429688 3.558594 C 30.429688 2.457031 29.542969 1.574219 28.445312 1.574219 Z M 4.628906 3.558594 L 6.945312 3.558594 L 6.945312 7.195312 L 3.308594 7.195312 L 3.308594 4.878906 C 3.308594 4.148438 3.898438 3.558594 4.628906 3.558594 Z M 8.929688 3.558594 L 12.238281 3.558594 L 12.238281 7.195312 L 8.929688 7.195312 Z M 14.222656 3.558594 L 17.53125 3.558594 L 17.53125 7.195312 L 14.222656 7.195312 Z M 19.515625 3.558594 L 22.824219 3.558594 L 22.824219 7.195312 L 19.515625 7.195312 Z M 24.808594 3.558594 L 27.121094 3.558594 C 27.855469 3.558594 28.445312 4.148438 28.445312 4.878906 L 28.445312 7.195312 L 24.808594 7.195312 Z M 3.308594 9.179688 L 6.945312 9.179688 L 6.945312 12.488281 L 3.308594 12.488281 Z M 8.929688 9.179688 L 12.238281 9.179688 L 12.238281 12.488281 L 8.929688 12.488281 Z M 14.222656 9.179688 L 17.53125 9.179688 L 17.53125 12.488281 L 14.222656 12.488281 Z M 19.515625 9.179688 L 22.824219 9.179688 L 22.824219 12.488281 L 19.515625 12.488281 Z M 24.808594 9.179688 L 28.445312 9.179688 L 28.445312 12.488281 L 24.808594 12.488281 Z M 3.308594 14.472656 L 6.945312 14.472656 L 6.945312 17.78125 L 3.308594 17.78125 Z M 8.929688 14.472656 L 12.238281 14.472656 L 12.238281 17.78125 L 8.929688 17.78125 Z M 14.222656 14.472656 L 17.53125 14.472656 L 17.53125 17.78125 L 14.222656 17.78125 Z M 19.515625 14.472656 L 22.824219 14.472656 L 22.824219 17.78125 L 19.515625 17.78125 Z M 24.808594 14.472656 L 28.445312 14.472656 L 28.445312 17.78125 L 24.808594 17.78125 Z M 3.308594 19.765625 L 6.945312 19.765625 L 6.945312 23.074219 L 3.308594 23.074219 Z M 8.929688 19.765625 L 12.238281 19.765625 L 12.238281 23.074219 L 8.929688 23.074219 Z M 14.222656 19.765625 L 17.53125 19.765625 L 17.53125 23.074219 L 14.222656 23.074219 Z M 19.515625 19.765625 L 22.824219 19.765625 L 22.824219 23.074219 L 19.515625 23.074219 Z M 24.808594 19.765625 L 28.445312 19.765625 L 28.445312 23.074219 L 24.808594 23.074219 Z M 3.308594 25.058594 L 6.945312 25.058594 L 6.945312 28.695312 L 4.628906 28.695312 C 3.898438 28.695312 3.308594 28.105469 3.308594 27.371094 Z M 8.929688 25.058594 L 12.238281 25.058594 L 12.238281 28.695312 L 8.929688 28.695312 Z M 14.222656 25.058594 L 17.53125 25.058594 L 17.53125 28.695312 L 14.222656 28.695312 Z M 19.515625 25.058594 L 22.824219 25.058594 L 22.824219 28.695312 L 19.515625 28.695312 Z M 24.808594 25.058594 L 28.445312 25.058594 L 28.445312 27.371094 C 28.445312 28.105469 27.855469 28.695312 27.121094 28.695312 L 24.808594 28.695312 Z M 24.808594 25.058594 "/>
</g>
</svg>

<svg xmlns="http://www.w3.org/2000/svg" width="32pt" height="32pt" viewBox="0 0 32 32"><path d="M3.309 1.574A1.977 1.977 0 0 0 1.324 3.56v25.136A1.98 1.98 0 0 0 3.31 30.68h25.136a1.982 1.982 0 0 0 1.985-1.985V3.56a1.98 1.98 0 0 0-1.985-1.985zm1.32 1.985h2.316v3.636H3.31V4.88c0-.73.59-1.32 1.32-1.32zm4.3 0h3.31v3.636h-3.31zm5.294 0h3.308v3.636h-3.308zm5.293 0h3.308v3.636h-3.308zm5.293 0h2.312c.734 0 1.324.59 1.324 1.32v2.316H24.81zm-21.5 5.62h3.636v3.31H3.31zm5.62 0h3.31v3.31h-3.31zm5.294 0h3.308v3.31h-3.308zm5.293 0h3.308v3.31h-3.308zm5.293 0h3.636v3.31H24.81zm-21.5 5.294h3.636v3.308H3.31zm5.62 0h3.31v3.308h-3.31zm5.294 0h3.308v3.308h-3.308zm5.293 0h3.308v3.308h-3.308zm5.293 0h3.636v3.308H24.81zm-21.5 5.293h3.636v3.308H3.31zm5.62 0h3.31v3.308h-3.31zm5.294 0h3.308v3.308h-3.308zm5.293 0h3.308v3.308h-3.308zm5.293 0h3.636v3.308H24.81zm-21.5 5.293h3.636v3.636H4.63c-.73 0-1.32-.59-1.32-1.324zm5.62 0h3.31v3.636h-3.31zm5.294 0h3.308v3.636h-3.308zm5.293 0h3.308v3.636h-3.308zm5.293 0h3.636v2.312a1.32 1.32 0 0 1-1.324 1.324H24.81zm0 0" fill="#bdbdbd"/></svg>
